X:1
T:Title
%%score { ( 1 3 ) | 2 }
L:1/8
M:6/8
K:C
V:1 treble nm="Grand Piano"
V:3 treble 
V:2 bass 
V:1
 z3 z2[Q:1/4=75] [EG] | [Ec][Ec][Ec] [Ec][GB][FA] | [FA][EG][EG] [EG]2 [EG] | %3
 [EG][DF][CE] [B,D][CE][DF] | [CE]3- [CE]2 [EG] | [Ec][Ec][Ec] [Ec][GB][FA] | %6
[M:5/8] [FA][EG][EG] [EG]2 |[M:1/8] [EG] |[M:3/4] AA cB A[FB] | [Ec]4- [Ec][Ec] | BB BB cd | %11
 [Ed]c c c2 [EG] | AA A[^FA] [Fd][Fc] | [GB]4- [GB][FG] | [Ec][Ec] [Ec][Ge] [Gd][Gc] | dc A A2 A | %16
 GG GG AB |[M:5/8] [Ec]-[Ec]- [Ec]3 |[M:1/8] [EG] |[M:3/4] B4 z2 | [Ec]3 [EG]2 [EG] | %21
 cc c[^Fc] [Fd][Fe] |[M:5/8] d-d- d3 |[M:1/8] G |[M:3/4] [Ge][Ge] [Ge][Gd] [Gd][Gd] | %25
 [Gc][Gc] [Gc] A2 A/A/ | GG GG AB |[M:5/8] [Ec]-[Ec]- [Ec]3 |] %28
V:2
 z3 z2 [C,C] | [C,G,][C,G,][C,G,] [C,C][C,C][C,C] | [C,C][C,C][C,C] [C,C]2 [C,G,] | %3
 [G,,G,][G,,G,][G,,G,] [G,,G,][G,,G,][G,,G,] | [C,G,]3- [C,G,]2 [C,C] | %5
 [C,G,][C,G,][C,G,] [C,C][C,C][C,C] |[M:5/8] [C,C][C,C][C,C] [C,C]2 |[M:1/8] [C,C] | %8
[M:3/4][K:treble] [F,CF][F,CF] [F,A,F][G,F] [G,F][K:bass][G,,G,] | [C,G,]4- [C,G,][C,G,] | %10
 [G,D][K:treble][G,D] [G,D][G,D] [G,E][G,F] | [C,G,][E,G,E] [G,CE] [CE]2 [C,C] | %12
 [F,CF][F,CF] [F,CF][D,D] [D,D][D,D] | [G,D]4- [G,D][G,B,] | [C,G,][C,G,] [C,G,][C,C] [D,B,][E,C] | %15
 [F,A,F][F,A,F] [F,CF] [F,CF]2 [F,CF] | [G,CE][G,CE] [G,CE][G,B,F] [G,CF][G,DF] | %17
[M:5/8][K:bass] [C,C]-[C,C]- [C,C]3 |[M:1/8] [C,C] | %19
[M:3/4][K:treble] [G,CF][G,D] [G,D][G,D] [G,DF][G,DF] | [C,C]3 [C,C]2 [C,C] | %21
 [A,E][A,E] [A,E][D,D] [D,D][D,C] |[M:5/8][K:treble] [G,B,G]-[G,B,G]- [G,B,G]3 | %23
[M:1/8][K:bass] [G,B,] |[M:3/4] [C,C][C,C] [C,C][D,B,] [D,B,][D,B,] | %25
 [E,C][E,C] [E,C][K:treble] [F,CF]2 [F,CF]/[F,CF]/ | [G,CE][G,CE] [G,CE][G,B,F] [G,CF][G,DF] | %27
[M:5/8][K:bass] [C,C]-[C,C]- [C,C]3 |] %28
V:3
 x6 | x6 | x6 | x6 | x6 | x6 |[M:5/8] x5 |[M:1/8] x |[M:3/4] x6 | x6 | x6 | x6 | x6 | x6 | x6 | %15
 x6 | x6 |[M:5/8] x5 |[M:1/8] x |[M:3/4] z F FF AB | x6 | x6 |[M:5/8] x5 |[M:1/8] x |[M:3/4] x6 | %25
 x6 | x6 |[M:5/8] x5 |] %28

